icons/megaphone_fill.svg

<svg width="48" height="48" viewBox="0 0 48 48" fill="none" xmlns="http://www.w3.org/2000/svg">
<path d="M12 31V38C12 39.1046 12.8954 40 14 40C15.1046 40 16 39.1046 16 38V31H12Z" fill="black"/>
<path d="M7 26V20C7 18.3431 8.34315 17 10 17H16V29H11.5H10C8.34315 29 7 27.6569 7 26Z" fill="black"/>
<path d="M34 23V22C34 20.3431 32.6569 19 31 19V26C32.6569 26 34 24.6569 34 23Z" fill="black"/>
<path d="M18 30V15L27.4631 8.97801C28.1288 8.55437 29 9.03258 29 9.82167V35.1783C29 35.9674 28.1288 36.4456 27.4631 36.022L18 30Z" fill="black"/>
<path fill-rule="evenodd" clip-rule="evenodd" d="M40.8322 17.4453C41.1385 17.9048 41.0143 18.5257 40.5548 18.832L37.5548 20.832C37.0953 21.1384 36.4744 21.0142 36.1681 20.5547C35.8617 20.0952 35.9859 19.4743 36.4454 19.1679L39.4454 17.1679C39.9049 16.8616 40.5258 16.9858 40.8322 17.4453ZM36.0001 24C36.0001 23.4477 36.4478 23 37.0001 23H41.0001C41.5524 23 42.0001 23.4477 42.0001 24C42.0001 24.5523 41.5524 25 41.0001 25H37.0001C36.4478 25 36.0001 24.5523 36.0001 24ZM36.1681 27.4453C36.4744 26.9858 37.0953 26.8616 37.5548 27.1679L40.5548 29.1679C41.0143 29.4743 41.1385 30.0952 40.8322 30.5547C40.5258 31.0142 39.9049 31.1384 39.4454 30.832L36.4454 28.832C35.9859 28.5257 35.8617 27.9048 36.1681 27.4453Z" fill="black"/>
</svg>

<svg
  xmlns="http://www.w3.org/2000/svg"
  width="24"
  height="24"
  viewBox="0 0 24 24"
  fill="none"
  stroke="currentColor"
  stroke-width="2"
  stroke-linecap="round"
  stroke-linejoin="round"
>
  <path d="M12 31v7a2 2 0 1 0 4 0v-7z" />
  <path d="M7 26v-6a3 3 0 0 1 3-3h6v12h-6a3 3 0 0 1-3-3" />
  <path d="M34 23v-1a3 3 0 0 0-3-3v7a3 3 0 0 0 3-3" />
  <path d="M18 30V15l9.463-6.022A1 1 0 0 1 29 9.822v25.356a1 1 0 0 1-1.537.844z" />
  <path
    fill-rule="evenodd"
    d="M40.832 17.445a1 1 0 0 1-.277 1.387l-3 2a1 1 0 1 1-1.11-1.664l3-2a1 1 0 0 1 1.387.277M36 24a1 1 0 0 1 1-1h4a1 1 0 1 1 0 2h-4a1 1 0 0 1-1-1m.168 3.445a1 1 0 0 1 1.387-.277l3 2a1 1 0 0 1-1.11 1.664l-3-2a1 1 0 0 1-.277-1.387"
    clip-rule="evenodd"
  />
</svg>
